X:1
T:God Is Keeping His Soldiers Fighting
T:Herbert Howard Booth, 1886
T:God Is Keeping His Soldiers Fighting
T:Public Domain
T:Public Domain
T:Public Domain
C:Herbert Howard Booth, 1886
Z:Public Domain
%%score ( 1 2 ) ( 3 4 )
L:1/8
M:4/4
K:F
V:1 treble 
V:2 treble 
V:3 bass 
V:4 bass 
V:1
 C>F | A2 A>^G [FA]2 [FB]2 | [FA]4 [CF]2 C>F | [CA]2 [CA]>[DB] C2 [CE]>[DF] | F6 C>F | %5
w: 1.~God is|ing His sol- diers fight-|Ev- er- more we|con- quer- ors be; All the|of Hell are~u-|
w: 2.~We will|low our con- quering Sav-|From be- fore Him|le- gions shall fly; Our bat-|ions nev- er~shall|
w: 3.~With sal-|tion for ev- ery na-|To the ends of|earth we will go, With a|and full sal-|
 A2 (A>^G) [FA]2 (BB) | [FA]4 [CF]2 A>A | G2 c>c c2 =B2 | (E2 F2 G2) (d>d) | [Gc]3 G [Ec]2 [Ed]2 | %10
w: But we’re * sure to *|to- ry. Though~to beat|they’ve been try- ing, Our|still * * are *|And our flag shall|
w: They’re de- * ter- mined *|or die. From ho-|ness and Heav- en We|will * * be *|We will stand our|
w: All the * power of *|we’ll show. We’ll tear|throne to piec- es, And|world * * for *|We’ll be con- quer-|
 [Fc]4 [FA]2 [Fd]2 | c3 G [Ec]2 [Ed]2 | [Fc]4 [FA]2 C>F | A3 ^G [FA]2 [Fc]2 | e2 d2 F2 [FG]2 | %15
w: for- ev- er,|For we nev- er|give in. * *|||
w: for- ev- er,|For we nev- er|give in. No, we|er, nev- er, nev-|will give in, No|
w: for- ev- er,|For we nev- er|give in. * *|||
 [FA]3 [FB] [EG]3 [CF] x | [CF]6 ||"^Refrain" C>F | A>^G A>B [FA]>[CF] C>F | [FA]6 A>B | %20
w: |||||
w: No we won’t! No,|we|nev- er,|er, nev- er will give in, For we|have the vic-|
w: |||||
 (G2 F2 E2) G>A | F6 C>F | A>^G A>B [FA]>[CF] C>F | [FA]6 c>c | d>d [DB]>[Fd] c>A F>A | %25
w: |||||
w: ry * * for- ev-|||||
w: |||||
 (F2 E2) F2 |] %26
w: |
w: |
w: |
V:2
 C2 | F4 x4 | x6 C2 | x4 C2 x2 | F6 C2 | F4 F2 x2 | x6 F2 | E4 F4 | c6 G2 | x3 G x4 | x8 | E4 x4 | %12
w: keep-|ing,|shall|hosts|nit- ing,|have vic-|us|col- ors|fly- ing,|wave||will|
w: fol-|ior,|Hell’s|tal-|wa- ver,|to conquer|li-|nev- er|driv- en;|ground||will|
w: va-|tion,|the|free|va- tion,|the cross|Hell’s|win the|Je- sus,|ors||will|
 x6 C2 | F4 x4 | F4 F2 x2 | x9 | x6 || C2 | F6 C2 | x6 F2 | G6 E2 | F6 C2 | F4 x/ C2 x3/2 | x6 F2 | %24
w: ||||||||||||
w: nev-|er|we won’t!|||nev-|mean to|to-|er. *||||
w: ||||||||||||
 F2 x/ F2 F2 x3/2 | G4 x2 |] %26
w: ||
w: ||
w: ||
V:3
 [F,A,]2 | C2 C>=B, [F,C]2 [F,D]2 | [F,C]4 [F,A,]2 [F,A,]2 | F,2 F,2 [C,E,]2 [C,B,]2 | %4
 ([F,A,]2 [G,B,]>[G,B,] [A,C]2) [G,B,]2 | C2 (C>=B,) [F,C]2 [F,D]2 | [F,C]4 [F,A,]2 [F,C]2 | %7
 [G,C]4 [G,D]4 | (C,2 D,2 E,2) [F,=B,]2 | [E,C]4 [C,C]2 [C,B,]2 | [F,A,]4 [F,C]2 [B,,B,]2 | %11
 [C,G,]4 [C,C]2 [C,B,]2 | [F,A,]4 [F,C]2 C>A, | C3 =B, [F,C]2 [A,C]2 | B,4 [B,D]2 [B,_D]2 | %15
 (C2 D) B,3 z A, x | [F,A,]6 || [F,A,]2 | C>=B, C>D C>A, [F,A,]2 | (F,2 C,2 F,2) [F,C]2 | %20
 ([E,C]2 [D,=B,]2 [C,C]2) [_B,C]2 | ([A,C]2 [G,B,]2 [F,A,]2) z2 | C>=B, C>D C>A, [F,A,]2 | %23
 (F,2 C,2 F,2) [A,C]2 | B,2 [B,,B,]2 A,>C A,>C | [C,B,]4 [F,A,]2 |] %26
V:4
 x2 | F,4 x4 | x8 | F,2 F,2 x4 | x8 | F,4 x4 | x8 | x8 | C6 x2 | x8 | x8 | x8 | x6 C2 | F,4 x4 | %14
 B,4 x4 | C3 C,4 C,2 | x6 || x2 | F,4 F,2 x2 | C6 x2 | x8 | x8 | F,4 F,2 x2 | C6 x2 | %24
 B,2 C,2 C,2 x2 | x6 |] %26

